UI/Data/SVG/database_outline_24px.svg

<svg width="24" height="24" viewBox="0 0 24 24" fill="none" xmlns="http://www.w3.org/2000/svg">
<path d="M21 6C21 3.37 16.47 2 12 2C7.53 2 3 3.37 3 6V18C3 20.63 7.53 22 12 22C16.47 22 21 20.63 21 18V6ZM12 4C16.55 4 19 5.42 19 6C19 6.58 16.55 8 12 8C7.45 8 5 6.58 5 6C5 5.42 7.45 4 12 4ZM19 18C19 18.58 16.55 20 12 20C7.45 20 5 18.58 5 18V14.6C7.19706 15.5912 9.59071 16.0699 12 16C14.4093 16.0699 16.8029 15.5912 19 14.6V18ZM12 14C7.45 14 5 12.58 5 12V8.6C7.19706 9.5912 9.59071 10.0699 12 10C14.4093 10.0699 16.8029 9.5912 19 8.6V12C19 12.58 16.55 14 12 14Z" fill="#0F1621"/>
</svg>

<svg xmlns="http://www.w3.org/2000/svg" width="24" height="24" viewBox="0 0 24 24"><rect width="24" height="24" style="fill:none"/><path d="M21,6c0-2.63-4.53-4-9-4S3,3.37,3,6V18c0,2.63,4.53,4,9,4s9-1.37,9-4ZM12,4c4.55,0,7,1.42,7,2s-2.45,2-7,2S5,6.58,5,6,7.45,4,12,4Zm7,14c0,.58-2.45,2-7,2s-7-1.42-7-2V14.6A15.9,15.9,0,0,0,12,16a15.9,15.9,0,0,0,7-1.4Zm-7-4c-4.55,0-7-1.42-7-2V8.6A15.9,15.9,0,0,0,12,10a15.9,15.9,0,0,0,7-1.4V12C19,12.58,16.55,14,12,14Z"/></svg>
